X:1804
T:Lady Louisa Macdonald's Strathspey
%
P:Lady Louisa Macdonald's Strathspey
C:Traditional?
R:Strathspey (8x32)
B:RSCDS 18-4
Z:Anselm Lingnau <anselm@strathspey.org>
M:4/4
L:1/8
K:F
A|"F"F>G F>d c<A c>g|"Dm"F>G F>A "Gm"B<G "C7"G>A|\
  "F"F>G F>d c<A A>c|"Dm"a>g f>F "Am"A<c c a|
  "F"F>G F>d c<A c>g|"Dm"F>G F>A "Gm"B<G "C7"G>A|\
  "F"F>G F>d c<A A>c|"Dm"d>e "C7"f>g "F"a>g f||
f/g/|"Dm"a>g f>F "Am"A<c cf/g/|"Dm"a>g f>d "C"e<g gf/g/|\
  "F"a>g f>c "Bb"d/e/f "F"c>A|"Bb"d>e f>d "F7"c<A A f/g/|
  "Dm"a>g f>F "Am"A<c cf/g/|"Dm"a>g f>d "C"e<g gf/g/|\
  "F"a>g f>c "Bb"d/e/f "F"c>A|"Gm7"B/c/d "C7"G>B "F"A<F F|]
%
P:Lord MacDonald's Strathspey
M:C
L:1/8
R:strathspey
B:Stewart-Robertson – The Athole Collection  (1884)
Z:Andrew Kuntz / Fiddler’s Companion
K:D
A/G/ | F<A Af/g/ a>fe>d | g>fe>d B>dB>A | F<A Af/g/ a>fe>d | e/f/g f/g/a e2d :| 
|: A | F<A A>B A>B A<F | G/G/G G2 G>AB>G | F<A A>B A>BA>F | G>BA>F D2D :| 
|: A/G/ | F<A Af/g/ a>fe>d | g>fe>d B<d B>A | F<A Af/g/ a>fe>d | e/f/g e/g/a e2d :| 
|: g | f<a a>b a>ba>f | g/g/g g2 g>ab>g | f<a a>b a>ba>f | g<a f>g e2d :| 
